icons/tensorflow-dark.svg

<svg xmlns="http://www.w3.org/2000/svg" width="256" height="256" fill="none"><rect width="256" height="256" fill="#282828" rx="60"/><path fill="#FF6F00" d="m124.228 229-33.605-20.11V90.31L40 120.459l.123-44.914L124.228 26zm7.556-203v203l33.609-20.11v-57.109l25.37 15.114-.151-39.062-25.219-14.845V90.31L216 120.459l-.122-44.914z"/></svg>

<svg width="256" height="256" viewBox="0 0 256 256" fill="none" xmlns="http://www.w3.org/2000/svg">
<rect width="256" height="256" rx="60" fill="#282828"/>
<path d="M124.228 229L90.623 208.89V90.31L40 120.459L40.123 75.545L124.228 26V229ZM131.784 26V229L165.393 208.89V151.781L190.763 166.895L190.612 127.833L165.393 112.988V90.31L216 120.459L215.878 75.545L131.784 26Z" fill="#FF6F00"/>
</svg>
